X: 670
T: Lord Gordon's Reel   #2
R: reel
%S: s:4 b:16(4+4+4+4)
B: Francis O'Neill: "The Dance Music of Ireland" (1907) #670
Z: Frank Nordberg - http://www.musicaviva.com
F: http://www.musicaviva.com/abc/tunes/ireland/oneill-1001/0670/oneill-1001-0670-1.abc
N: Compacted by using labels and play order [JC]
P: Play ABCB
M: C|
L: 1/8
K: D
"^A"[|](dB) | AD (3(FED) AD (3(FED) | ADFD A2(GF) | EFGA BE (3({F}EDE) | defd B2 ||
"^B"[| (AB) | defd efdB | AFDF A2(Bc) | dBcA BGAF | EFGA HB2 |]
"^C"[| (de) | f>d (3({e}dcd) fgag | fddf a2(gf) | efga beef | defd "^->B"B2 |]
